X:1
T:Naftali's Favorite
R:reel
C:Megan Wobus
S:Megan Wobus composed 6/1/2006
M:2/4
K:A
|: c3d cAEA | cBcd cADA | cBcd cAEA | BABd cAAB |
   c3d cAEA | cBcd cADA | cBcd cAEA | BABd cAAB :|
|: eabe faea | cabe faea | eabe faea | ead'a c'aba |
   eabe faea | cabe faea | eabe faea | eabg a4 :|
W:Copyright 2006 Megan Wobus, PGTPPCATPL AORR
